X: 754
T: Jerry's Beaver Hat
M:6/8
L:1/8
B:O'Neill's 754
R:Jig
Z:"Transcribed by Bob Safranek, rjs@gsp.org"
N:"Collected by O'Reilly"
K:D
   D | DFA d2 e | fdB BAF | ABA AFD | EFE TE2 D  |
       DFA d2 e | fdB BAF | ABA dAF | DED  D2   :|
|: d | dfa afd  | gbg faf | dfa afd | cee  e2 f  |
       dfa afd  | gbg faf | BdB AFA | DED  D2   :|


